X: 558
T: Didi Çi Kerdi
C: Yahyâ Nazîm Çelebi
O: Turkey
F: http://compmusic.upf.edu/node/140
N: beyati--agirsemai--agir_aksaksemai--didi_ci_kerdi--yahya_nazim_celebi
N: makam= beyati
N: form= agirsemai
N: usul= agir_aksaksemai = 10/4
M: 10/4
L: 1/16
K: C _2/4B   
Q: 1/4=72
%%MIDI tuningsystem comma53
A8 G4 A4 A2G2 c2c2 B2c2 d8 z4  | e4 d2e2 d2c2 c6B2 e2d2 d2e2 c2d2 c4 B4  | 
w:  *  Di dî  *  *  çi  *  *  *  ker  |   | 
c2B2 c2d2 c4 c2B2 c2d2 c2d2 c2B2 f2e2 d4 c2B2  | \
w:   | 
A8 G4 A4 A2G2 c2c2 B2c2 d8 z4  | 
w:   | 
e4 d2e2 d2c2 c6B2 e2d2 d2e2 c2d2 c4 B4  | \
w:   | 
c2B2 c2d2 c4 c2B2 c2d2 c2d2 c2B2 c4 B2c2 B2c2  | 
w:   | 
d8 d4 g4 f4 e4 d4 f2e2 d4 c2B2  | \
w:   | 
c8 B4 c2B2 c2e2 d4 c2B2 B3A A8  | 
w:   | 
A8 A4 A8 A8 g4 e4 e2d2  | d8 e4 c8 c8 g4 e6d2  | \
w:   |   | 
d12 z4 z4 e6d2 d4 c4 B4  | 
w:   | 
c8 z4 z4 z4 d4 e4 g4 f4 e4  | d8 c2B2 c2B2 c2e2 d4 c2B2 B3A A8  | 
w:   |   | 
A12 z4 z4 z4 d6c2 B4 c4  | d6e2 c4 d8 c4 d8 f2e2 d2c2  | \
w:   |   | 
B4 c4 d4 d2c2 B3A G4 B4 c4 d6e2  | 
w:   | 
c4 d8 c4 d8 f2e2 d2c2 B4 c4  | d8 d2c2 B2A2 G4 d2e2 f4 z4 d8  | 
w:   |   | 
g4 g4 d8 d4 z4 g4 g4 d8  | B4 d4 c4 B4 c2c2 B2A2 B4 c4 d2c2 B3A  | 
w:   |   | 
G4 z4 A8 G4 A4 B4 B4 d4 G4  | G4 G4 c8 c4 B4 B3A G4 A2B2 c2d2  | 
w:   |   | 
A8 g4 z8 e2d2 d8 e4 c4  | c4 c8 g4 e6d2 d12 z4  | \
w:   |   | 
z4 e6d2 d4 c4 B4 c12 z4  | 
w:   | 
z4 d4 e4 g4 f4 e4 d4 d4 c2B2 c2B2  | \
w:   | 
c2e2 d4 c2B2 B3A A8 A8 A4 A4  | 
w:   | 
A12 z8 z4 A8 G4 A4  | A2G2 c2c2 B2c2 d8 z4 e4 d2e2 d2c2 c4  | \
w:   |   | 
c2B2 e2d2 d2e2 c2d2 c4 B4 c2B2 c2d2 c4 c2B2  | 
w:   | 
c2d2 c2d2 c2B2 f2e2 d4 c2B2 A8 G4 A4  | \
w:   | 
A2G2 c2c2 B2c2 d8 z4 e4 d2e2 d2c2 c4  | 
w:   | 
c2B2 e2d2 d2e2 c2d2 c4 B4 c2B2 c2d2 c4 c2B2  | \
w:   | 
c2d2 c2d2 c2B2 c4 B2c2 B2c2 d8 d4 g4  | 
w:   | 
f4 e4 d4 f2e2 d4 c2B2 c8 B4 c2B2  | \
w:   | 
c2e2 d4 c2B2 B3A A8 A8 A4 A4  | 
w:   | 
A4 A8 g4 e4 e2d2 d8 e4 c4  | c4 c8 g4 e6d2 d12 z4  | \
w:   |   | 
z4 e6d2 d4 c4 B4 c8 z4 z4  | 
w:   | 
z4 d4 e4 g4 f4 e4 d8 c2B2 c2B2  | \
w:   | 
c2e2 d4 c2B2 B3A A8 A12 z4  | 
w:   | 
z4 z4 d6c2 B4 c4 d6e2 c4 d4  | d4 c4 d8 f2e2 d2c2 B4 c4 d4 d2c2  | 
w:   |   | 
B3A G4 B4 c4 d6e2 c4 d8 c4  | d8 f2e2 d2c2 B4 c4 d8 d2c2 B2A2  | 
w:   |   | 
G4 d2e2 f4 z4 d8 g4 g4 d8  | d4 z4 g4 g4 d8 B4 d4 c4 B4  | \
w:   |   | 
c2c2 B2A2 B4 c4 d2c2 B3A G4 z4 A8  | 
w:   | 
G4 A4 B4 B4 d4 G4 G4 G4 c8  | c4 B4 B3A G4 A2B2 c2d2 A8 g4 z4  | 
w:   |   | 
z4 e2d2 d8 e4 c8 c8 g4  | e6d2 d12 z4 z4 e6d2 d4  | \
w:   |   | 
c4 B4 c12 z4 z4 d4 e4 g4  | 
w:   | 
f4 e4 d4 d4 c2B2 c2B2 c2e2 d4 c2B2 B3A  | \
w:   | 
A8 A8 A4 A4 A12 z4  | 
w:   | 
|


